icons/folder-quasar.svg

<svg xmlns="http://www.w3.org/2000/svg" viewBox="0 0 16 16">
<path id="folder" fill="#1976d2" d="m6.922 3.768-.644-.536A1 1 0 0 0 5.638 3H2a1 1 0 0 0-1 1v8a1 1 0 0 0 1 1h12a1 1 0 0 0 1-1V5a1 1 0 0 0-1-1H7.562a1 1 0 0 1-.64-.232" />
<path id="motive" fill="#bbdefb" d="M 12.013,10 A 1.014,1.014 0 1 1 11,9.024 0.995,0.995 0 0 1 12.013,10 M 15.4965,7.499 A 5,5 0 0 0 14.7015,6.498 L 13.53,7.15 a 3.95,3.95 0 0 0 -1.2225,-0.6825 4.65,4.65 0 0 0 -0.9465,1.3 5.87,5.87 0 0 1 3.9,1.309 L 15.9975,8.667 A 4.9,4.9 0 0 0 15.4965,7.5 Z m 0,5.001 A 4.9,4.9 0 0 0 16,11.335 l -1.171,-0.6515 a 3.6,3.6 0 0 0 0.0025,-1.36 5,5 0 0 0 -1.6425,-0.139 5.35,5.35 0 0 1 0.7725,3.906 l 0.7365,0.41 A 5,5 0 0 0 15.4965,12.5 m -4.496,2.5 a 5.4,5.4 0 0 0 1.2985,-0.163 v -1.3015 a 3.95,3.95 0 0 0 1.2255,-0.6785 4.55,4.55 0 0 0 -0.696,-1.44 5.68,5.68 0 0 1 -3.1275,2.598 v 0.82 A 5.4,5.4 0 0 0 11.0005,15 m -4.497,-2.5 a 5,5 0 0 0 0.796,1.002 L 8.47,12.85 a 3.9,3.9 0 0 0 1.2235,0.6825 4.65,4.65 0 0 0 0.9455,-1.3 5.875,5.875 0 0 1 -3.9,-1.309 L 6.0035,11.333 a 4.9,4.9 0 0 0 0.5,1.1665 z m 0,-5 A 4.9,4.9 0 0 0 6,8.665 l 1.1715,0.6515 a 3.6,3.6 0 0 0 -0.0025,1.36 5,5 0 0 0 1.643,0.139 5.35,5.35 0 0 1 -0.7725,-3.907 L 7.302,6.4985 A 5,5 0 0 0 6.5035,7.501 Z M 10.9995,5 A 5.4,5.4 0 0 0 9.701,5.163 V 6.4645 A 3.95,3.95 0 0 0 8.476,7.143 4.55,4.55 0 0 0 9.1725,8.583 5.675,5.675 0 0 1 12.3,5.985 V 5.165 A 5.4,5.4 0 0 0 11,5 Z" />
</svg>

<svg xmlns="http://www.w3.org/2000/svg" viewBox="0 0 16 16"><path id="folder" fill="#1976d2" d="m6.922 3.768-.644-.536A1 1 0 0 0 5.638 3H2a1 1 0 0 0-1 1v8a1 1 0 0 0 1 1h12a1 1 0 0 0 1-1V5a1 1 0 0 0-1-1H7.562a1 1 0 0 1-.64-.232"/><path id="motive" fill="#bbdefb" d="M12.013 10A1.014 1.014 0 1 1 11 9.024a.995.995 0 0 1 1.013.976m3.483-2.501a5 5 0 0 0-.795-1.001l-1.171.652a4 4 0 0 0-1.222-.682 4.7 4.7 0 0 0-.947 1.3 5.87 5.87 0 0 1 3.9 1.309l.737-.41a5 5 0 0 0-.502-1.167Zm0 5.001A5 5 0 0 0 16 11.335l-1.171-.651a3.6 3.6 0 0 0 .003-1.36 5 5 0 0 0-1.643-.14 5.35 5.35 0 0 1 .773 3.907l.736.41a5 5 0 0 0 .798-1.001M11 15a5.4 5.4 0 0 0 1.299-.163v-1.301a4 4 0 0 0 1.226-.679 4.6 4.6 0 0 0-.697-1.44 5.68 5.68 0 0 1-3.127 2.598v.82a5.4 5.4 0 0 0 1.3.165m-4.497-2.5a5 5 0 0 0 .796 1.002l1.17-.652a3.9 3.9 0 0 0 1.224.683 4.7 4.7 0 0 0 .945-1.3 5.88 5.88 0 0 1-3.9-1.31l-.735.41a5 5 0 0 0 .5 1.167m0-5A5 5 0 0 0 6 8.665l1.172.652a3.6 3.6 0 0 0-.003 1.36 5 5 0 0 0 1.643.138 5.35 5.35 0 0 1-.772-3.907l-.738-.41a5 5 0 0 0-.798 1.003ZM11 5a5.4 5.4 0 0 0-1.299.163v1.301a4 4 0 0 0-1.225.679 4.6 4.6 0 0 0 .696 1.44A5.68 5.68 0 0 1 12.3 5.985v-.82A5.4 5.4 0 0 0 11 5"/></svg>
